src/assets/outline/Login.svg

<svg width="24" height="24" viewBox="0 0 24 24"  xmlns="http://www.w3.org/2000/svg">
<path d="M15.24 22.27H15.11C10.67 22.27 8.53002 20.52 8.16002 16.6C8.12002 16.19 8.42002 15.82 8.84002 15.78C9.25002 15.74 9.62002 16.05 9.66002 16.46C9.95002 19.6 11.43 20.77 15.12 20.77H15.25C19.32 20.77 20.76 19.33 20.76 15.26V8.73998C20.76 4.66998 19.32 3.22998 15.25 3.22998H15.12C11.41 3.22998 9.93002 4.41998 9.66002 7.61998C9.61002 8.02998 9.27002 8.33998 8.84002 8.29998C8.42002 8.26998 8.12001 7.89998 8.15001 7.48998C8.49001 3.50998 10.64 1.72998 15.11 1.72998H15.24C20.15 1.72998 22.25 3.82998 22.25 8.73998V15.26C22.25 20.17 20.15 22.27 15.24 22.27Z" />
<path d="M14.88 12.75H2C1.59 12.75 1.25 12.41 1.25 12C1.25 11.59 1.59 11.25 2 11.25H14.88C15.29 11.25 15.63 11.59 15.63 12C15.63 12.41 15.3 12.75 14.88 12.75Z" />
<path d="M12.6498 16.1001C12.4598 16.1001 12.2698 16.0301 12.1198 15.8801C11.8298 15.5901 11.8298 15.1101 12.1198 14.8201L14.9398 12.0001L12.1198 9.18009C11.8298 8.89009 11.8298 8.41009 12.1198 8.12009C12.4098 7.83009 12.8898 7.83009 13.1798 8.12009L16.5298 11.4701C16.8198 11.7601 16.8198 12.2401 16.5298 12.5301L13.1798 15.8801C13.0298 16.0301 12.8398 16.1001 12.6498 16.1001Z" />
</svg>

<?xml version="1.0" encoding="UTF-8"?>
<svg width="24" height="24" viewBox="0 0 24 24" xmlns="http://www.w3.org/2000/svg">
 <path d="m15.24 22.27h-0.13c-4.44 0-6.58-1.75-6.95-5.67-0.04-0.41 0.26-0.78 0.68-0.82 0.41-0.04 0.78 0.27 0.82 0.68 0.29 3.14 1.77 4.31 5.46 4.31h0.13c4.07 0 5.51-1.44 5.51-5.51v-6.52c0-4.07-1.44-5.51-5.51-5.51h-0.13c-3.71 0-5.19 1.19-5.46 4.39-0.05 0.41-0.39 0.72-0.82 0.68-0.42-0.03-0.72001-0.4-0.69001-0.81 0.34-3.98 2.49-5.76 6.96-5.76h0.13c4.91 0 7.01 2.1 7.01 7.01v6.52c0 4.91-2.1 7.01-7.01 7.01z"/>
 <path d="m14.88 12.75h-12.88c-0.41 0-0.75-0.34-0.75-0.75s0.34-0.75 0.75-0.75h12.88c0.41 0 0.75 0.34 0.75 0.75s-0.33 0.75-0.75 0.75z"/>
 <path d="m12.65 16.1c-0.19 0-0.38-0.07-0.53-0.22-0.29-0.29-0.29-0.77 0-1.06l2.82-2.82-2.82-2.82c-0.29-0.29-0.29-0.77 0-1.06s0.77-0.29 1.06 0l3.35 3.35c0.29 0.29 0.29 0.77 0 1.06l-3.35 3.35c-0.15 0.15-0.34 0.22-0.53 0.22z"/>
</svg>
